uploads/global/play-circle.svg

<svg height="446" viewBox="0 0 446 446" width="446" xmlns="http://www.w3.org/2000/svg"><g fill="none" transform="translate(15 15)"><path d="m208 0c-114.8 0-208 93.2-208 208s93.2 208 208 208 208-93.2 208-208-93.2-208-208-208z" stroke="#334146" stroke-width="30"/><path d="m178.732157 125.005455 106.354561 74.4005c4.525446 3.165783 5.627671 9.400756 2.461888 13.926202-.670361.958272-1.503617 1.791528-2.461888 2.461888l-106.354561 74.4005c-4.525446 3.165783-10.760419 2.063558-13.926202-2.461888-1.17549-1.680348-1.805955-3.681463-1.805955-5.732157v-148.801c0-5.522847 4.477153-10 10-10 2.050694 0 4.051809.630465 5.732157 1.805955z" fill="#334146"/></g></svg>

<?xml version="1.0" encoding="UTF-8"?>
<svg width="446px" height="446px" viewBox="0 0 446 446" version="1.1" xmlns="http://www.w3.org/2000/svg" xmlns:xlink="http://www.w3.org/1999/xlink">
    <!-- Generator: Sketch 52.5 (67469) - http://www.bohemiancoding.com/sketch -->
    <title>_ionicons_svg_md-play-circle</title>
    <desc>Created with Sketch.</desc>
    <g id="Page-1" stroke="none" stroke-width="1" fill="none" fill-rule="evenodd">
        <g id="_ionicons_svg_md-play-circle" transform="translate(15.000000, 15.000000)" fill-rule="nonzero">
            <path d="M208,0 C93.2,0 0,93.2 0,208 C0,322.8 93.2,416 208,416 C322.8,416 416,322.8 416,208 C416,93.2 322.8,0 208,0 Z" id="Shape" stroke="#334146" stroke-width="30"></path>
            <path d="M178.732157,125.005455 L285.086718,199.405955 C289.612164,202.571738 290.714389,208.806711 287.548606,213.332157 C286.878245,214.290429 286.044989,215.123685 285.086718,215.794045 L178.732157,290.194545 C174.206711,293.360328 167.971738,292.258103 164.805955,287.732657 C163.630465,286.052309 163,284.051194 163,282.0005 L163,133.1995 C163,127.676653 167.477153,123.1995 173,123.1995 C175.050694,123.1995 177.051809,123.829965 178.732157,125.005455 Z" id="Path" fill="#334146"></path>
        </g>
    </g>
</svg>
